!!!!SEGMENT: pl-kk--kk-i-270--003_anonim--alleluia-ave-maria.krn
!!!cenid: 17xx:2039
!!!COM: Anonim
!!!COM-rismID: pe30004985
!!!CDT:
!!!CNT:
!!!OTL: Alleluia Ave Maria
!!!PDT:
!!!AGN: Sacred
!!!SMS-siglum: PL-Kk
!!!SMS-shelfmark: Kk.I.270
!!!SMS-shelfwork: 003 W
!!!SMS-variant:
!!!SMS-altvar:
!!!NIFC-rismSourceID: 1001143710
!!!NIFC-islandoraID: pl-kk:4785
!!!URL-pdf-islandora: https://repozytorium.nifc.pl/islandora/object/pl-kk%3A4785/datastream/PDF/view
!!!URL-scan: https://polish.musicsources.pl/pl/lokalizacje/galeria/rekopisy/5888 @EN{Scan on Polish Music Sources Website} @PL{Skany w portalu Dziedzictwo Muzyki Polskiej w otwartym dostępie}
!!!ONB-nifc: UWAGA: utwory w zbiorze: 1. Rorate caeli, 2. Tollite portas, 3. Alleluia Ave Maria
!!!AIN: 1 alto 2 empty 2 tenor
!!!key:
**kern	**text	**kern	**text	**kern	**text	**kern	**text	**kern	**text
*part5	*part5	*part4	*part4	*part3	*part3	*part2	*part2	*part1	*part1
*staff5	*staff5	*staff4	*staff4	*staff3	*staff3	*staff2	*staff2	*staff1	*staff1
*Iempty	*	*Iempty	*	*Itenor	*	*Itenor	*	*Ialto	*
*I"Baſso ripieno	*	*I"Baſso	*	*I"Tenore Secundo.	*	*I"Tenore Primo	*	*I"Alto.	*
*I'B rip	*	*I'B	*	*I'T II	*	*I'T I	*	*I'A	*
*clefF4	*	*clefF4	*	*clefC4	*	*clefC4	*	*clefC3	*
*k[]	*	*k[]	*	*k[]	*	*k[]	*	*k[]	*
*G:	*	*G:	*	*G:	*	*G:	*	*G:	*
*M3/4	*	*M3/4	*	*M3/4	*	*M3/4	*	*M3/4	*
*>[A,B,A]	*	*>[A,B,A]	*	*>[A,B,A]	*	*>[A,B,A]	*	*>[A,B,A]	*
=1	=1	=1	=1	=1	=1	=1	=1	=1	=1
*>A	*	*>A	*	*>A	*	*>A	*	*>A	*
*rscale:2	*	*	*	*	*	*	*	*	*
!LO:TX:a:t=Lente	!	!	!	!	!	!	!	!	!
4r	.	4r	.	4r	.	4r	.	4r	.
*2\right	*	*	*	*	*	*	*	*	*
4G\	Al-	4G\	Al-	4B\	Al-	4B\	Al-	4g\	al-
4G\	-le-	4G\	-le-	4d\	-le-	4B\	-le-	4g\	-le-
!	!	!	!	!	!	!LO:LB:g=original	!	!	!
=2	=2	=2	=2	=2	=2	=2	=2	=2	=2
4A\	-lu-	4A\	-lu-	4A\	-lu-	4c\	-lu-	4g\	-lu-
4A\	-ja	4A\	-ja	4A\	-ja	4c\	-ja	4f#X\	-ja
4A\	al-	4A\	al-	4A\	al-	4c\	al-	4f#\	al-
=3	=3	=3	=3	=3	=3	=3	=3	=3	=3
*	*	*	*	*2\right	*	*2\right	*	*2\right	*
!	!	!	!	!LO:TX:a:t=P:problem=skreślone 2B\	!	!	!	!	!
8B\	-le-	8B\L	-le-	2d\	-le-	2B\	-le-	2g\	-le-
8A\	.	8A\	.	.	.	.	.	.	.
8G\	.	8G\	.	.	.	.	.	.	.
8A\	.	8A\	.	.	.	.	.	.	.
8B\	-lu-	8B\	-lu-	(8d\L	-lu-	(8B\L	-lu-	4g\	-lu-
8c\	.	8c\J	.	8e\J)	.	8G\J)	.	.	.
=4	=4	=4	=4	=4	=4	=4	=4	=4	=4
4d,<\	-ja	4d\	-ja	4f#\	-ja	4A\	-ja	4f#X\	-ja
*	*ij	*	*ij	*	*	*	*	*	*
4D/	al-	4D\	al-	4d\	al-	4f#X\	al-	4d\	al-
4D/	-le-	4D\	-le-	4d\	-le-	4f#\	-le-	4d\	-le-
=5	=5	=5	=5	=5	=5	=5	=5	=5	=5
4D/	-lu-	4D\	-lu-	4A\	-lu-	4e\	-lu-	4e\	-lu-
4Cn,</	-ja	4C\	-ja	4A\	-ja	4e\	-ja	4e\	-ja
!	!	!	!	!LO:TX:b:t=Verte.	!	!	!	!	!
4C/	al-	4C\	al-	4A\	al-	4e\	al-	4e\	al-
!	!	!	!	!LO:PB:g=original	!	!	!	!LO:LB:g=original	!
=6	=6	=6	=6	=6	=6	=6	=6	=6	=6
2AA/	-le-	2AA/	-le-	2G/	-le-	2cn\	-le-	8f#X\L	-le-
.	.	.	.	.	.	.	.	8e\	.
.	.	.	.	.	.	.	.	8d\	.
.	.	.	.	.	.	.	.	8e\J	.
4AA/	-lu-	4AA/	-lu-	4A/	-lu-	4c\	-lu-	8f#X\L	-lu-
.	.	.	.	.	.	.	.	8d\J	.
!LO:LB:g=original	!	!	!	!	!	!	!	!	!
=7	=7	=7	=7	=7	=7	=7	=7	=7	=7
4GG,</	-ja	4GG/	-ja	4B\	-ja	4d\	-ja	4g\	-ja
*	*	*	*	*	*ij	*	*	*	*ij
4G\	al-	4G\	al-	4d\	al-	4B\	al-	4g\	al-
4G\	-le-	4G\	-le-	4d\	-le-	4B\	-le-	4g\	-le-
=8	=8	=8	=8	=8	=8	=8	=8	=8	=8
4D\	-lu-	4D\	-lu-	4d\	-lu-	4A\	-lu-	4f#X\	-lu-
4D,<\	-ja	4D\	-ja	4d\	-ja	4A\	-ja	4f#\	-ja
*	*Xij	*	*Xij	*	*Xij	*	*	*	*Xij
4D\	al-	4D\	al-	4d\	al-	(8A\L	al-	4f#\	al-
.	.	.	.	.	.	8B\J)	.	.	.
!LO:LB:g=original	!	!LO:LB:g=original	!	!	!	!	!	!	!
=9	=9	=9	=9	=9	=9	=9	=9	=9	=9
*2\right	*	*2\right	*	*	*	*	*	*	*
2E\	-le-	2E\	-le-	2c\	-le-	2c\	-le-	2g\	-le-
4F#X\	-lu-	4F#X\	-lu-	4A\	-lu-	8c\L	-lu-	4a\	-lu-
!	!	!	!	!	!	!LO:TX:b:t=Verte.	!	!	!
.	.	.	.	.	.	8d\J	.	.	.
!	!	!	!	!	!	!LO:PB:g=original	!	!	!
=10	=10	=10	=10	=10	=10	=10	=10	=10	=10
4.G\	-ja	4.G\	-ja	4.d\	-ja	(4.B\	-ja	(4.b\	-ja
8A\	.	8A\	.	8c\	.	8c\)	.	8a\	.
4B\	.	4B\	.	4B\	.	4d\	.	4g\)	.
=11	=11	=11	=11	=11	=11	=11	=11	=11	=11
*	*ij	*	*	*	*	*	*	*	*
4C/	al-	4C/	al-	4e\	al-	(8c\L	al-	4g\	al-
.	.	.	.	.	.	8B\J)	.	.	.
4.D\	-le-	4.D/	-le-	4d\	-le-	4.A\	-le-	4g\	-le-
.	.	.	.	4d\	-lu-	.	.	4f#X\	-lu-
8D\	-lu-	8D/	-lu-	.	.	8A\	-lu-	.	.
=12	=12	=12	=12	=12	=12	=12	=12	=12	=12
!LO:N:vis=0.	!	!	!	!	!	!	!	!	!
2.GG/	-ja.	2.GG/	-ja.	2.d\	-ja.	2.B\	-ja	2.g\	-ja.
*	*Xij	*	*	*	*	*	*	*	*
!	!	!	!	!LO:LB:g=original	!	!	!	!LO:LB:g=original	!
=13||	=13||	=13||	=13||	=13||	=13||	=13||	=13||	=13||	=13||
*>B	*	*>B	*	*>B	*	*>B	*	*>B	*
*M3/4	*	*M3/4	*	*M3/4	*	*M3/4	*	*M3/4	*
4C/	A-	4C/	A-	4e\	A-	4c\	a-	4g\	A-
4C/	-ve	4C/	-ve	4e\	-ve	4c\	-ve	4g\	-ve
4C/	Ma-	4C/	Ma-	4e\	Ma-	4c\	Ma-	4g\	Ma-
=14	=14	=14	=14	=14	=14	=14	=14	=14	=14
2C/	-ri-	2C/	-ri-	2f\	-ri-	2c\	-ri-	2a\	-ri-
4C/	-a	4C/	-a	4e\	-a	4c\	-a	4g\	-a
!LO:LB:g=original	!	!	!	!	!	!	!	!	!
=15	=15	=15	=15	=15	=15	=15	=15	=15	=15
4.E\	Gra-	4.E\	gra-	4.e\	gra-	4.c\	gra-	4.g\	gra-
8E\	-ti-	8E\	-ti-	8e\	-ti-	8c\	-ti-	8g\	-ti-
4F\	-a	4F\	-a	4d\	-a	4d\	-a	4a\	-a
=16	=16	=16	=16	=16	=16	=16	=16	=16	=16
2G\	ple-	2G\	ple-	2B\	ple-	2d\	ple-	2d\	ple-
4G\	-na	4G\	-na	4B\	-na	4d\	-na	4d\	-na
!LO:LB:g=original	!	!LO:LB:g=original	!	!	!	!LO:LB:g=original	!	!	!
=17	=17	=17	=17	=17	=17	=17	=17	=17	=17
4.A\	D(o--	4.A\	gra-	4.f\	gra-	4.c\	gra-	4.a\	gra-
8A\	-mi)-	8A\	-ti-	8f\	-ti-	8c\	-ti-	8a\	-ti-
4D\	-n(us)	4D\	-a	4f\	-a	4c\	-a	4a\	-a
=18	=18	=18	=18	=18	=18	=18	=18	=18	=18
*	*ij	*	*ij	*	*ij	*	*ij	*	*ij
4.G\	D(o-	4.G\	gra-	4.f\	gra-	4.d\	gra-	4.g\	gra-
8G\	-mi)-	8G\	-ti-	8f\	-ti-	8d\	-ti-	8g\	-ti-
4C/	-n(us)	4C/	-a	4e\	-a	4e\	-a	4g\	-a
*	*Xij	*	*Xij	*	*Xij	*	*Xij	*	*Xij
=19	=19	=19	=19	=19	=19	=19	=19	=19	=19
(4F\	Te-	(4F\	ple-	(4d\	ple-	(4f\	ple-	(4a\	ple-
2G\)	.	2G\)	.	4c\)	.	2d\)	.	2g\)	.
.	.	.	.	4B\	.	.	.	.	.
!	!	!	!	!LO:LB:g=original	!	!	!	!	!
=20	=20	=20	=20	=20	=20	=20	=20	=20	=20
4C,</	-cum	4C/	-na	4c\	-na	4e\	-na	4g\	-na
8A\	D(o-	8A\	do-	8e\	Do-	8c\	do-	8a\	Do-
8A\	-mi)-	8A\	-mi-	8e\	-mi-	8c\	-mi-	8a\	-mi-
4A\	-nus	4A\	-nus	4e\	-nus	4c\	-nus	4a\	-nus
=21	=21	=21	=21	=21	=21	=21	=21	=21	=21
*	*ij	*	*ij	*	*ij	*	*	*	*ij
4.A\	D(o-	4.A\	do-	4.d\	Do-	(8B\L	do-	4.b\	Do-
.	.	.	.	.	.	8A\	.	.	.
.	.	.	.	.	.	8B\J)	.	.	.
8A\	-mi)-	8A\	-mi-	8d\	-mi-	8c\	-mi-	8b\	-mi-
4G#X\	-nus	4G#X\	-nus	4e\	-nus	(8d\L	-nus	4b\	-nus
*	*Xij	*	*Xij	*	*Xij	*	*	*	*Xij
.	.	.	.	.	.	8e\J)	.	.	.
!	!	!	!	!	!	!	!	!LO:LB:g=original	!
=22	=22	=22	=22	=22	=22	=22	=22	=22	=22
4A\	Te-	(4A\	te-	(4e\	te-	(4.c\	Te-	(4cc\	te-
4B\	.	4B\)	.	4d\)	.	.	.	4b\)	.
.	.	.	.	.	.	8d\)	.	.	.
4c\	-cu(m)	4c\	-cum	4c\	-cum	4e\	-cum	4a\	-cum
!LO:LB:g=original	!	!LO:LB:g=original	!	!	!	!LO:LB:g=original	!	!	!
=23	=23	=23	=23	=23	=23	=23	=23	=23	=23
2d\	be-	2d\	be-	2d\	be-	2f\	be-	2cc\	be-
4d\	-ne-	4d\	-ne-	4d\	-ne-	4f\	-ne-	4cc\	-ne-
!LO:LB:g=original	!	!	!	!	!	!	!	!	!
=24-	=24	=24	=24	=24	=24	=24	=24	=24	=24
2G\	-dic-	2G\	-dic-	2d\	-dic-	2f\	-dic-	2b\	-dic-
4G\,<	-ta	4G\	-ta	4d\	-ta	4f\	-ta	4b\	-ta
=25-	=25	=25	=25	=25	=25	=25	=25	=25	=25
*	*ij	*	*ij	*	*	*	*ij	*	*ij
2c\	be-	2c\	be-	2c\	be-	2e\	be-	2b\	be-
4c\	-ne-	4c\	-ne-	4c\	-ne-	4e\	-ne-	4b\	-ne-
=26-	=26	=26	=26	=26	=26	=26	=26	=26	=26
2Fn\	-dic-	2F\	-dic-	2c\	-dic-	2e\	-dic-	2a\	-dic-
4F\	-ta	4F\	-ta	4c\	-ta	4e\	-ta	4a\	-ta
*	*	*	*	*	*	*	*Xij	*	*Xij
=27	=27	=27	=27	=27	=27	=27	=27	=27	=27
*	*	*	*	*	*ij	*	*	*	*
2B\	be-	2B\	be-	2B\	be-	2d\	be-	2a\	be-
4B\	-ne-	4B\	-ne-	4B\	-ne-	4d\	-ne-	4a\	-ne-
=28-	=28	=28	=28	=28	=28	=28	=28	=28	=28
2E\	-dic-	2E\	-dic-	2B\	-dic-	2d\	-dic-	2g#X\	-dic-
4E\	-ta	4E\	-ta	4B\	-ta	4d\	-ta	4g#\	-ta
*	*Xij	*	*Xij	*	*Xij	*	*	*	*
!	!	!	!	!LO:LB:g=original	!	!	!	!	!
=29	=29	=29	=29	=29	=29	=29	=29	=29	=29
4.AA/	Tu	4.AA/	tu	4.e\	tu	4.c\	tu	4.cc\	tu
8BB/	in	8BB/	in	8d\	in	8d\	in	8b\	in
4C/	mu-	4C/	mu-	4c\	mu-	4e\	mu-	4a\	mu-
=30-	=30	=30	=30	=30	=30	=30	=30	=30	=30
4D\	-li-	4D\	-lu-	4f\	-li-	(8d\L	-li-	4a\	-li-
.	.	.	.	.	.	8c\J)	.	.	.
4.E\	-e-	4.E\	-e-	4.e\	-e-	4.B\	-e-	4.a\	-e-
8E\	-ri-	8E\	-ri-	8e\	-ri-	8B\	-ri-	8g#X\	-ri-
!LO:LB:g=original	!	!LO:LB:g=original	!	!	!	!LO:LB:g=original	!	!LO:LB:g=original	!
=31	=31	=31	=31	=31	=31	=31	=31	=31	=31
2AA,</	-bus	2AA/	-bus	2e\	-bus	2c\	-bus	2a\	-bus
4C/	et	4C/	et	4c\	et	4e\	et	4gn\	et
=32-	=32	=32	=32	=32	=32	=32	=32	=32	=32
2C/	be-	2C/	be-	2c\	be-	(8e\L	be-	(8g\L	be-
.	.	.	.	.	.	8d\	.	8f\	.
.	.	.	.	.	.	8c\	.	8e\	.
.	.	.	.	.	.	8d\J)	.	8f\)	.
4C/	-ne-	4C/	-ne-	4c\	-ne-	8e\L	-ne-	(8g\	-ne-
.	.	.	.	.	.	8c\J	.	8e\J)	.
=33-	=33	=33	=33	=33	=33	=33	=33	=33	=33
4G\	-dic-	4G\	-dic-	4d\	-dic-	2B\	-dic-	4d\	-dic-
4G,<\	-t(us)	4G\	-tus	4d\	-tus	.	.	4d\	-tus
!	!	!	!	!LO:TX:a:t=P:problem=skreślona kreska taktowa	!	!	!	!	!
*	*ij	*	*ij	*	*	*	*	*	*
4G\	et	4G\	et	4B\	et	4e\	-tus	4g\	et
=34-	=34	=34	=34	=34	=34	=34	=34	=34	=34
2F\	be-	2F\	be-	2A\	be-	4e\	fruc-	2a\	be-
.	.	.	.	.	.	2d\	-tus	.	.
4F\	-ne-	4F\	-ne-	4d\	-ne-	.	.	4a\	-ne-
=35	=35	=35	=35	=35	=35	=35	=35	=35	=35
*	*	*	*	*	*	*	*ij	*	*
4.E\	-dic-	4.E\	-dic-	4.e\	-dic-	(4.c\	fruc-	4.g\	-dic-
8D,<\	-tus	8D\	-tus	8B\	-tus	8d\)	.	8f\	-tus
*	*Xij	*	*Xij	*	*	*	*	*	*
8C\	Fruc-	8C\	fruc-	8c\	fruc-	(8e\L	-tus	8e\	fruc-
*	*	*	*	*	*	*	*Xij	*	*
8F\	-t(us)	8F\	-tus	8d\	-tus	8f\J)	.	8a\	-tus
!	!	!	!	!LO:LB:g=original	!	!	!	!	!
=36-	=36	=36	=36	=36	=36	=36	=36	=36	=36
4G\	Ven-	4G\	ven-	4B\	ven-	4d\	ven-	4g\	ven-
4G\	-tris	4G\	-tris	4B\	-tris	4d\	-tris	4g\	-tris
*	*ij	*	*	*	*	*	*	*	*
4G\	et	4G\	et	4B\	et	4d\	et	4g\	et
=37-	=37	=37	=37	=37	=37	=37	=37	=37	=37
2A\	be-	2A\	be-	2c\	be-	2A\	be-	4g\	be-
.	.	.	.	.	.	.	.	2f#X\	-ne-
!	!	!LO:TX:a:t=P:problem=wymazany takt	!	!	!	!	!	!	!
4A\	-ne-	4A\	-ne-	4c\	-ne-	4c\	-ne-	.	.
!	!	!LO:LB:g=original	!	!	!	!LO:LB:g=original	!	!	!
=38-	=38	=38	=38	=38	=38	=38	=38	=38	=38
4.B\	-dic-	4.B\	-dic-	4.d\	-dic-	4.B\	-dic-	4.g\	-dic-
8A\	-tus	8A\	-tus	8c\	-tus	8c\	-tus	8a\	-tus
!	!	!	!	!	!	!	!	!LO:LB:g=original	!
8G\	fruc-	8G\	fruc-	8B\	fruc-	8d\	fruc-	8b\	fruc-
8C/	-tus	8C/	-tus	8e\	-tus	8e\	-tus	8cc\	-tus
=39	=39	=39	=39	=39	=39	=39	=39	=39	=39
2D/	ven-	8D/L	ven-	2d\	ven-	2A\	ven-	2f#X\	ven-
.	.	(8E/	.	.	.	.	.	.	.
.	.	8D/	.	.	.	.	.	.	.
.	.	8C/J)	.	.	.	.	.	.	.
4BB/	-tris	4BB/	-tris	4d\	-tris	4B\	-tris	4g\	-tris
*	*Xij	*	*	*	*	*	*	*	*
=40	=40	=40	=40	=40	=40	=40	=40	=40	=40
4C/	tu-	4C/	tu-	(8c\L	tu-	(4e\	tu-	(4g\	tu-
.	.	.	.	8B\J)	.	.	.	.	.
2D/	.	2D/	.	2A\	.	2d\)	.	2f#X\)	.
=41	=41	=41	=41	=41	=41	=41	=41	=41	=41
!	!	!LO:TX:b:t=Alleluja ùt Suprà	!	!LO:TX:b:t=Alleluja\n da Capo.	!	!LO:TX:b:t=Alleluja da Capo	!	!LO:TX:b:t=Alleluja.	!
2.GG/	-i	2.GG/	-i	2.B\	-i.	2.d\	-i	2.g\	-i
==	==	==	==	==	==	==	==	==	==
*-	*-	*-	*-	*-	*-	*-	*-	*-	*-
!!!system-decoration: [(s1,s2,s3,s4)]s5
!!!RDF**kern: < = below
!!!ENC: Marta Lawrence
!!!END: 2021-03-04
!!!ENC: Berenika Jozajtis
!!!END: 2021-02-17
